src/images/crypto-icon-svg/dgd.svg

<svg xmlns="http://www.w3.org/2000/svg" width="32" height="32" viewBox="0 0 32 32">
  <g fill="none" fill-rule="evenodd">
    <circle cx="16" cy="16" r="16" fill="#F4D029"/>
    <path fill="#FFF" d="M12.5,11 L12.5,14 L5.5,14 L5.5,11 L12.5,11 Z M13.5,11 L15.5,11 L15.5,21 L5.5,21 L5.5,15 L13.5,15 L13.5,11 Z M7.5,17 L7.5,19 L13.5,19 L13.5,17 L7.5,17 Z M26.5,13 L18.5,13 L18.5,19 L24.5,19 L24.5,17 L20.5,17 L20.5,15 L26.5,15 L26.5,21 L16.5,21 L16.5,11 L26.5,11 L26.5,13 Z"/>
  </g>
</svg>

<svg xmlns="http://www.w3.org/2000/svg" width="32" height="32"><g fill="none" fill-rule="evenodd"><circle cx="16" cy="16" r="16" fill="#F4D029"/><path fill="#FFF" d="M12.5 11v3h-7v-3h7zm1 0h2v10h-10v-6h8v-4zm-6 6v2h6v-2h-6zm19-4h-8v6h6v-2h-4v-2h6v6h-10V11h10v2z"/></g></svg>
